X: 02133
T: TWO WEEKS 'TIL CHRISTMAS
C: Bob McQuillen 11 Dec.'74
B: Bob's Note Book 1&2 #133
%R: jig
Z: 2019 John Chambers <jc:trillian.mit.edu>
M: 6/8
L: 1/8
K: D
A \
| dAA FAA | dAA FAA | dAA eAA | fgf e2A |\
| dAA FAA | dAA FAA | dAA efg | fdd d2 :|
|: f/g/ \
| aff aff | gee gee | fdd Adf | agf e2f/g/ |\
| aff aff | gee gee | fga gec |edd d2 :|
%%begintext align
%% Happy Birthday and
%% much love always to
%% Prissy
%%endtext
